X:66
T: Maros partján elaludtam...
K: F
M: 4/4
L: 1/4
GGgg | gggf | 
ffec | dddd | 
ddcc | ccdB | 
BBAF | GGGG | 

